X:1
T:Cantad al señor
T:Cantad al señor
T:G. Flores
T:Arr. G. Frausto Zamora
C:G. Flores
Z:Arr. G. Frausto Zamora
%%score 1 2 3 4
L:1/8
Q:1/4=90
M:4/4
K:F
V:1 treble nm="Violín" snm="Vln."
V:2 treble nm="Violín" snm="Vln."
V:3 alto nm="Viola" snm="Vla."
V:4 bass nm="Violonchelo" snm="Vc."
V:1
 GA | B2 cB A2 G2 | F6 C2 |: F4 G2 G2 | A6 GA | B2 A2 G2 F2 | G6 G2 | c3 d c2 B2 | A6 GA | %9
 B2 cB A2 G2 |1 F6 C2 :|2 F6 z2 || z8 | z8 | z8 | z8 | z8 | z8 | z8 | z8 | z8 | z8 | z8 | z8 | z8 | %25
 z8 | z8 | z8 | z8 | z8 | z8 | z8 | z8 |] %33
V:2
 z2 | F4 E4 | C6 C2 |: C4 F2 E2 | F2 G2 F2 C2 | D4 D4 | E8 | F6 E2 | F2 G2 F2 E2 | F4 E4 |1 %10
 C6 C2 :|2 C6 z2 || z8 | z8 | z8 | z8 | z8 | z8 | z8 | z8 | z8 | z8 | z8 | z8 | z8 | z8 | z8 | z8 | %28
 z8 | z8 | z8 | z8 | z8 |] %33
V:3
 z2 | D4 C2 B,2 | A,4 C2 B,2 |: A,4 B,2 C2 | C2 =B,^C D2 A,2 | G,4 G,4 | C4 C4 | C8 | C2 ^C2 D4 | %9
 D4 C2 B,2 |1 A,4 C2 B,2 :|2 A,6 z2 || z8 | z8 | z8 | z8 | z8 | z8 | z8 | z8 | z8 | z8 | z8 | z8 | %24
 z8 | z8 | z8 | z8 | z8 | z8 | z8 | z8 | z8 |] %33
V:4
 z2 | G,4 C,4 | F,4 C,4 |: F,2 D,2 G,2 C,2 | F,2 E,2 D,2 C,2 | B,,4 =B,,4 | C,3 D, C,2 B,2 | %7
 A,3 B, A,2 G,2 | F,2 E,2 D,4 | G,4 C,4 |1 F,4 C,4 :|2 F,6 z2 || z8 | z8 | z8 | z8 | z8 | z8 | z8 | %19
 z8 | z8 | z8 | z8 | z8 | z8 | z8 | z8 | z8 | z8 | z8 | z8 | z8 | z8 |] %33

